Frontend/simple-cms/src/images/simple-cms-logo.svg

<svg fill="none" height="47" viewBox="0 0 66 47" width="66" xmlns="http://www.w3.org/2000/svg"><path d="m13.0759 18.8849c-1.8983-1.3725-3.17257-2.675-3.82295-3.9076-.63871-1.238-.72306-2.5086-.25306-3.8119.53185-1.47473 1.55821-2.48044 3.07921-3.01711 1.5326-.54215 3.2421-.47309 5.1284.20718 1.2861.46382 2.3411 1.12527 3.1649 1.98433.8324.8622 1.3652 1.8295 1.5986 2.9019.2419 1.0756.1758 2.1321-.1984 3.1695l-2.4822-.8951c.4082-1.1318.3681-2.1491-.1202-3.0519-.4852-.9114-1.3837-1.6036-2.6955-2.0767-1.2176-.43907-2.2667-.51221-3.1474-.2194-.8691.2873-1.4752.9068-1.8184 1.8585-.2752.7631-.1872 1.5264.2642 2.2899.463.758 1.3916 1.6355 2.7858 2.6325 1.4028 1 2.4456 1.9235 3.1284 2.7705.6945.8415 1.1251 1.6896 1.2916 2.5442.1752.8576.0911 1.7623-.2521 2.7141-.5473 1.5176-1.578 2.5217-3.0921 3.0124-1.511.4822-3.2567.3661-5.2374-.3482-1.28606-.4638-2.3983-1.1411-3.33668-2.0318-.93528-.8992-1.55269-1.8873-1.85224-2.9643-.29097-1.0738-.2401-2.1552.1526-3.2441l2.48219.8951c-.40816 1.1318-.31545 2.1778.27814 3.1379.60525.9547 1.60666 1.684 3.00419 2.188 1.3033.47 2.398.5645 3.2842.2833.8863-.2811 1.4948-.8804 1.8256-1.7978.3309-.9174.2645-1.7407-.1992-2.4699-.4606-.7378-1.4474-1.6556-2.9602-2.7535z" fill="#d72323"/><path d="m21.9297 28h-1.5v-11.375h1.5zm4.6875-11.375 3.7187 9.2812 3.7188-9.2812h1.9453v11.375h-1.5v-4.4297l.1406-4.7812-3.7344 9.2109h-1.1484l-3.7266-9.1875.1485 4.7578v4.4297h-1.5v-11.375zm13.5312 6.9219v4.4531h-1.5v-11.375h4.1954c1.2447 0 2.2187.3177 2.9218.9531.7084.6354 1.0625 1.4766 1.0625 2.5235 0 1.1041-.3463 1.9557-1.039 2.5546-.6875.5938-1.6745.8907-2.961.8907zm0-1.2266h2.6954c.802 0 1.4166-.1875 1.8437-.5625.4271-.3802.6406-.9271.6406-1.6406 0-.6771-.2135-1.2188-.6406-1.625-.4271-.4063-1.013-.6172-1.7578-.6328h-2.7813zm10.1016 4.4531h5.3906v1.2266h-6.8984v-11.375h1.5078zm13.5312-4.0312h-4.9296v4.0312h5.7265v1.2266h-7.2265v-11.375h7.1484v1.2344h-5.6484v3.6562h4.9296z" fill="#fff"/><path d="m32.6875 39.3906c-.1406 1.2032-.5859 2.1328-1.3359 2.7891-.7448.651-1.737.9765-2.9766.9765-1.3438 0-2.4219-.4817-3.2344-1.4453-.8073-.9635-1.2109-2.2526-1.2109-3.8671v-1.0938c0-1.0573.1875-1.987.5625-2.7891.3802-.802.9167-1.4166 1.6094-1.8437.6927-.4323 1.4948-.6484 2.4062-.6484 1.2083 0 2.1771.3385 2.9063 1.0156.7291.6718 1.1536 1.6041 1.2734 2.7968h-1.5078c-.1302-.9062-.4141-1.5624-.8516-1.9687-.4323-.4063-1.039-.6094-1.8203-.6094-.9583 0-1.7109.3542-2.2578 1.0625-.5417.7084-.8125 1.7162-.8125 3.0235v1.1015c0 1.2344.2578 2.2162.7734 2.9453.5157.7292 1.237 1.0938 2.1641 1.0938.8333 0 1.4714-.1875 1.9141-.5625.4479-.3802.7448-1.0391.8906-1.9766zm3.9922-7.7656 3.7187 9.2812 3.7188-9.2812h1.9453v11.375h-1.5v-4.4297l.1406-4.7812-3.7343 9.2109h-1.1485l-3.7265-9.1875.1484 4.7578v4.4297h-1.5v-11.375zm15.3828 6.3047c-1.2865-.3698-2.224-.8229-2.8125-1.3594-.5833-.5417-.875-1.2083-.875-2 0-.8958.3568-1.6354 1.0703-2.2187.7188-.5886 1.6511-.8828 2.7969-.8828.7812 0 1.4766.151 2.0859.4531.6146.3021 1.0886.7187 1.4219 1.25.3385.5312.5078 1.112.5078 1.7422h-1.5078c0-.6875-.2188-1.2266-.6562-1.6172-.4376-.3959-1.0547-.5938-1.8516-.5938-.7396 0-1.3177.1641-1.7344.4922-.4114.3229-.6172.7735-.6172 1.3516 0 .4635.1953.8567.586 1.1797.3958.3177 1.0651.6093 2.0078.875.9479.2656 1.6875.5599 2.2187.8828.5365.3177.9323.6901 1.1875 1.1172.2604.427.3906.9296.3906 1.5078 0 .9218-.3593 1.6614-1.0781 2.2187-.7187.5521-1.6797.8281-2.8828.8281-.7812 0-1.5104-.1484-2.1875-.4453-.6771-.302-1.2005-.7135-1.5703-1.2343-.3646-.5209-.5469-1.112-.5469-1.7735h1.5078c0 .6875.2526 1.2318.7578 1.6328.5105.3959 1.1902.5938 2.0391.5938.7917 0 1.3985-.1615 1.8203-.4844.4219-.3229.6328-.763.6328-1.3203s-.1953-.987-.5859-1.2891c-.3906-.3073-1.099-.6093-2.125-.9062z" fill="#fff"/><path d="m56 29.5h-32" stroke="#d72323"/></svg>

<svg width="66" height="47" viewBox="0 0 66 47" fill="none" xmlns="http://www.w3.org/2000/svg">
<path d="M13.0759 18.8849C11.1776 17.5124 9.90333 16.2099 9.25295 14.9773C8.61424 13.7393 8.52989 12.4687 8.99989 11.1654C9.53174 9.69067 10.5581 8.68496 12.0791 8.14829C13.6117 7.60614 15.3212 7.6752 17.2075 8.35547C18.4936 8.81929 19.5486 9.48074 20.3724 10.3398C21.2048 11.202 21.7376 12.1693 21.971 13.2417C22.2129 14.3173 22.1468 15.3738 21.7726 16.4112L19.2904 15.5161C19.6986 14.3843 19.6585 13.367 19.1702 12.4642C18.685 11.5528 17.7865 10.8606 16.4747 10.3875C15.2571 9.94843 14.208 9.87529 13.3273 10.1681C12.4582 10.4554 11.8521 11.0749 11.5089 12.0266C11.2337 12.7897 11.3217 13.553 11.7731 14.3165C12.2361 15.0745 13.1647 15.952 14.5589 16.949C15.9617 17.949 17.0045 18.8725 17.6873 19.7195C18.3818 20.561 18.8124 21.4091 18.9789 22.2637C19.1541 23.1213 19.07 24.026 18.7268 24.9778C18.1795 26.4954 17.1488 27.4995 15.6347 27.9902C14.1237 28.4724 12.378 28.3563 10.3973 27.642C9.11124 27.1782 7.999 26.5009 7.06062 25.6102C6.12534 24.711 5.50793 23.7229 5.20838 22.6459C4.91741 21.5721 4.96828 20.4907 5.36098 19.4018L7.84317 20.2969C7.43501 21.4287 7.52772 22.4747 8.12131 23.4348C8.72656 24.3895 9.72797 25.1188 11.1255 25.6228C12.4288 26.0928 13.5235 26.1873 14.4097 25.9061C15.296 25.625 15.9045 25.0257 16.2353 24.1083C16.5662 23.1909 16.4998 22.3676 16.0361 21.6384C15.5755 20.9006 14.5887 19.9828 13.0759 18.8849Z" fill="#D72323"/>
<path d="M21.9297 28H20.4297V16.625H21.9297V28ZM26.6172 16.625L30.3359 25.9062L34.0547 16.625H36V28H34.5V23.5703L34.6406 18.7891L30.9062 28H29.7578L26.0312 18.8125L26.1797 23.5703V28H24.6797V16.625H26.6172ZM40.1484 23.5469V28H38.6484V16.625H42.8438C44.0885 16.625 45.0625 16.9427 45.7656 17.5781C46.474 18.2135 46.8281 19.0547 46.8281 20.1016C46.8281 21.2057 46.4818 22.0573 45.7891 22.6562C45.1016 23.25 44.1146 23.5469 42.8281 23.5469H40.1484ZM40.1484 22.3203H42.8438C43.6458 22.3203 44.2604 22.1328 44.6875 21.7578C45.1146 21.3776 45.3281 20.8307 45.3281 20.1172C45.3281 19.4401 45.1146 18.8984 44.6875 18.4922C44.2604 18.0859 43.6745 17.875 42.9297 17.8594H40.1484V22.3203ZM50.25 26.7734H55.6406V28H48.7422V16.625H50.25V26.7734ZM63.7812 22.7422H58.8516V26.7734H64.5781V28H57.3516V16.625H64.5V17.8594H58.8516V21.5156H63.7812V22.7422Z" fill="white"/>
<path d="M32.6875 39.3906C32.5469 40.5938 32.1016 41.5234 31.3516 42.1797C30.6068 42.8307 29.6146 43.1562 28.375 43.1562C27.0312 43.1562 25.9531 42.6745 25.1406 41.7109C24.3333 40.7474 23.9297 39.4583 23.9297 37.8438V36.75C23.9297 35.6927 24.1172 34.763 24.4922 33.9609C24.8724 33.1589 25.4089 32.5443 26.1016 32.1172C26.7943 31.6849 27.5964 31.4688 28.5078 31.4688C29.7161 31.4688 30.6849 31.8073 31.4141 32.4844C32.1432 33.1562 32.5677 34.0885 32.6875 35.2812H31.1797C31.0495 34.375 30.7656 33.7188 30.3281 33.3125C29.8958 32.9062 29.2891 32.7031 28.5078 32.7031C27.5495 32.7031 26.7969 33.0573 26.25 33.7656C25.7083 34.474 25.4375 35.4818 25.4375 36.7891V37.8906C25.4375 39.125 25.6953 40.1068 26.2109 40.8359C26.7266 41.5651 27.4479 41.9297 28.375 41.9297C29.2083 41.9297 29.8464 41.7422 30.2891 41.3672C30.737 40.987 31.0339 40.3281 31.1797 39.3906H32.6875ZM36.6797 31.625L40.3984 40.9062L44.1172 31.625H46.0625V43H44.5625V38.5703L44.7031 33.7891L40.9688 43H39.8203L36.0938 33.8125L36.2422 38.5703V43H34.7422V31.625H36.6797ZM52.0625 37.9297C50.776 37.5599 49.8385 37.1068 49.25 36.5703C48.6667 36.0286 48.375 35.362 48.375 34.5703C48.375 33.6745 48.7318 32.9349 49.4453 32.3516C50.1641 31.763 51.0964 31.4688 52.2422 31.4688C53.0234 31.4688 53.7188 31.6198 54.3281 31.9219C54.9427 32.224 55.4167 32.6406 55.75 33.1719C56.0885 33.7031 56.2578 34.2839 56.2578 34.9141H54.75C54.75 34.2266 54.5312 33.6875 54.0938 33.2969C53.6562 32.901 53.0391 32.7031 52.2422 32.7031C51.5026 32.7031 50.9245 32.8672 50.5078 33.1953C50.0964 33.5182 49.8906 33.9688 49.8906 34.5469C49.8906 35.0104 50.0859 35.4036 50.4766 35.7266C50.8724 36.0443 51.5417 36.3359 52.4844 36.6016C53.4323 36.8672 54.1719 37.1615 54.7031 37.4844C55.2396 37.8021 55.6354 38.1745 55.8906 38.6016C56.151 39.0286 56.2812 39.5312 56.2812 40.1094C56.2812 41.0312 55.9219 41.7708 55.2031 42.3281C54.4844 42.8802 53.5234 43.1562 52.3203 43.1562C51.5391 43.1562 50.8099 43.0078 50.1328 42.7109C49.4557 42.4089 48.9323 41.9974 48.5625 41.4766C48.1979 40.9557 48.0156 40.3646 48.0156 39.7031H49.5234C49.5234 40.3906 49.776 40.9349 50.2812 41.3359C50.7917 41.7318 51.4714 41.9297 52.3203 41.9297C53.112 41.9297 53.7188 41.7682 54.1406 41.4453C54.5625 41.1224 54.7734 40.6823 54.7734 40.125C54.7734 39.5677 54.5781 39.138 54.1875 38.8359C53.7969 38.5286 53.0885 38.2266 52.0625 37.9297Z" fill="white"/>
<line x1="56" y1="29.5" x2="24" y2="29.5" stroke="#D72323"/>
</svg>
